resources/icons/color/kqlscript.svg

<svg width="64" height="64" viewBox="0 0 64 64" fill="none" xmlns="http://www.w3.org/2000/svg">
<path d="M10 11C10 7.13401 13.134 4 17 4H47C50.866 4 54 7.13401 54 11V53C54 56.866 50.866 60 47 60H17C13.134 60 10 56.866 10 53V11Z" fill="url(#paint0_linear_41743_63376)"/>
<path d="M10 11C10 7.13401 13.134 4 17 4H47C50.866 4 54 7.13401 54 11V53C54 56.866 50.866 60 47 60H17C13.134 60 10 56.866 10 53V11Z" fill="url(#paint1_radial_41743_63376)" fill-opacity="0.2"/>
<path fill-rule="evenodd" clip-rule="evenodd" d="M47 5H17C13.6863 5 11 7.68629 11 11V53C11 56.3137 13.6863 59 17 59H47C50.3137 59 53 56.3137 53 53V11C53 7.68629 50.3137 5 47 5ZM17 4C13.134 4 10 7.13401 10 11V53C10 56.866 13.134 60 17 60H47C50.866 60 54 56.866 54 53V11C54 7.13401 50.866 4 47 4H17Z" fill="url(#paint2_linear_41743_63376)"/>
<path d="M27.5 24C27.2239 24 27 24.2238 27 24.5C27 24.7761 27.2239 25 27.5 25H36.5C36.7761 25 37 24.7761 37 24.5C37 24.2238 36.7761 24 36.5 24H27.5Z" fill="url(#paint3_linear_41743_63376)"/>
<path d="M27 28.5C27 28.2238 27.2239 28 27.5 28H36.5C36.7761 28 37 28.2238 37 28.5C37 28.7761 36.7761 29 36.5 29H27.5C27.2239 29 27 28.7761 27 28.5Z" fill="url(#paint4_linear_41743_63376)"/>
<path d="M27.5 32C27.2239 32 27 32.2238 27 32.5C27 32.7761 27.2239 33 27.5 33H36.5C36.7761 33 37 32.7761 37 32.5C37 32.2238 36.7761 32 36.5 32H27.5Z" fill="url(#paint5_linear_41743_63376)"/>
<path fill-rule="evenodd" clip-rule="evenodd" d="M41.5002 19C43.4332 19 45.0002 20.567 45.0002 22.5V31C45.0002 31.5523 44.5525 32 44.0002 32H41.0001V42.0001C41.0001 43.6268 39.7053 44.9512 38.0901 44.9987L38.0911 45.0001L22.5 44.9999C20.567 44.9999 19 43.4329 19 41.4999V36.9999C19 36.4476 19.4477 35.9999 20 35.9999H23.0001V23.0001C23.0001 20.7909 24.791 19.0001 27.0001 19.0001L41.5002 19ZM40 20.0001H27.0001C25.3433 20.0001 24.0001 21.3432 24.0001 23.0001V35.9999H35.5C35.6629 35.9999 35.8076 36.0778 35.8989 36.1984C35.9624 36.2823 36.0001 36.3868 36.0001 36.5001V42.0001C36.0001 43.1046 36.8955 44.0001 38.0001 44.0001C39.1047 44.0001 40.0001 43.1046 40.0001 42.0001L40 20.0001Z" fill="url(#paint6_linear_41743_63376)"/>
<path fill-rule="evenodd" clip-rule="evenodd" d="M46.7905 59.24C46.5105 59.52 46.1305 59.68 45.7305 59.68C45.3305 59.68 44.9505 59.52 44.6705 59.24C44.3905 58.96 44.2305 58.58 44.2305 58.18C44.2305 57.78 44.3905 57.4 44.6705 57.12L47.5005 54.29C47.6505 54.14 47.8305 54.02 48.0305 53.95L45.6405 51.56C45.2105 51.13 45.0805 50.49 45.3205 49.92C45.5505 49.36 46.1005 49 46.7005 49H57.4905C58.3205 49 58.9905 49.67 58.9905 50.5V61.29C58.9905 61.71 58.8205 62.1 58.5205 62.38C58.2405 62.64 57.8705 62.79 57.4905 62.79C57.0905 62.79 56.7205 62.63 56.4305 62.35L54.2005 60.12C54.1305 60.31 54.0105 60.5 53.8605 60.65L51.0305 63.48C50.7505 63.76 50.3705 63.92 49.9705 63.92C49.5705 63.92 49.1905 63.76 48.9105 63.48C48.3305 62.9 48.3305 61.97 48.8805 61.39L46.7905 63.48C46.5105 63.76 46.1305 63.92 45.7305 63.92C45.3305 63.92 44.9505 63.76 44.6705 63.48C44.0905 62.9 44.0905 61.94 44.6705 61.36" fill="#F5F5F5"/>
<path fill-rule="evenodd" clip-rule="evenodd" d="M58.0005 50.5C58.0005 50.22 57.7805 50 57.5005 50H46.7105C46.2605 50 46.0405 50.54 46.3605 50.85L57.1505 61.64C57.4605 61.95 58.0005 61.73 58.0005 61.29V50.5ZM48.9205 55.71C49.1205 55.51 49.1205 55.2 48.9205 55C48.7205 54.8 48.4105 54.8 48.2105 55L45.3805 57.83C45.1805 58.03 45.1805 58.34 45.3805 58.54C45.5805 58.74 45.8905 58.74 46.0905 58.54L48.9205 55.71ZM51.0405 57.12C51.2405 57.32 51.2405 57.63 51.0405 57.83L46.0905 62.78C45.8905 62.98 45.5805 62.98 45.3805 62.78C45.1805 62.58 45.1805 62.27 45.3805 62.07L50.3305 57.12C50.5305 56.92 50.8405 56.92 51.0405 57.12ZM53.1605 59.95C53.3605 59.75 53.3605 59.44 53.1605 59.24C52.9605 59.04 52.6505 59.04 52.4505 59.24L49.6205 62.07C49.4205 62.27 49.4205 62.58 49.6205 62.78C49.8205 62.98 50.1305 62.98 50.3305 62.78L53.1605 59.95Z" fill="url(#paint7_linear_41743_63376)"/>
<defs>
<linearGradient id="paint0_linear_41743_63376" x1="22.2222" y1="4" x2="31.1528" y2="60.1348" gradientUnits="userSpaceOnUse">
<stop stop-color="white"/>
<stop offset="1" stop-color="#EBEBEB"/>
</linearGradient>
<radialGradient id="paint1_radial_41743_63376" cx="0" cy="0" r="1" gradientUnits="userSpaceOnUse" gradientTransform="translate(24.0556 18.5833) rotate(62.354) scale(50.0471 38.5706)">
<stop offset="0.177083" stop-color="white"/>
<stop offset="1" stop-color="#B8B8B8"/>
</radialGradient>
<linearGradient id="paint2_linear_41743_63376" x1="24.2083" y1="4" x2="33.7019" y2="59.9445" gradientUnits="userSpaceOnUse">
<stop stop-color="#BBBBBB"/>
<stop offset="1" stop-color="#888888"/>
</linearGradient>
<linearGradient id="paint3_linear_41743_63376" x1="19" y1="19" x2="45.0002" y2="45.0002" gradientUnits="userSpaceOnUse">
<stop stop-color="#4BA446"/>
<stop offset="1" stop-color="#3F7D35"/>
</linearGradient>
<linearGradient id="paint4_linear_41743_63376" x1="19" y1="19" x2="45.0002" y2="45.0002" gradientUnits="userSpaceOnUse">
<stop stop-color="#4BA446"/>
<stop offset="1" stop-color="#3F7D35"/>
</linearGradient>
<linearGradient id="paint5_linear_41743_63376" x1="19" y1="19" x2="45.0002" y2="45.0002" gradientUnits="userSpaceOnUse">
<stop stop-color="#4BA446"/>
<stop offset="1" stop-color="#3F7D35"/>
</linearGradient>
<linearGradient id="paint6_linear_41743_63376" x1="19" y1="19" x2="45.0002" y2="45.0002" gradientUnits="userSpaceOnUse">
<stop stop-color="#4BA446"/>
<stop offset="1" stop-color="#3F7D35"/>
</linearGradient>
<linearGradient id="paint7_linear_41743_63376" x1="45.2305" y1="50" x2="58.1595" y2="62.769" gradientUnits="userSpaceOnUse">
<stop stop-color="#4BA446"/>
<stop offset="1" stop-color="#3F7D35"/>
</linearGradient>
</defs>
</svg>

<svg xmlns="http://www.w3.org/2000/svg" width="64" height="64" fill="currentColor"><path fill="url(#a)" d="M10 11a7 7 0 0 1 7-7h30a7 7 0 0 1 7 7v42a7 7 0 0 1-7 7H17a7 7 0 0 1-7-7V11Z"/><path fill="url(#b)" fill-opacity=".2" d="M10 11a7 7 0 0 1 7-7h30a7 7 0 0 1 7 7v42a7 7 0 0 1-7 7H17a7 7 0 0 1-7-7V11Z"/><path fill="url(#c)" fill-rule="evenodd" d="M47 5H17a6 6 0 0 0-6 6v42a6 6 0 0 0 6 6h30a6 6 0 0 0 6-6V11a6 6 0 0 0-6-6ZM17 4a7 7 0 0 0-7 7v42a7 7 0 0 0 7 7h30a7 7 0 0 0 7-7V11a7 7 0 0 0-7-7H17Z" clip-rule="evenodd"/><path fill="url(#d)" d="M27.5 24a.5.5 0 1 0 0 1h9a.5.5 0 0 0 0-1h-9Z"/><path fill="url(#e)" d="M27 28.5a.5.5 0 0 1 .5-.5h9a.5.5 0 1 1 0 1h-9a.5.5 0 0 1-.5-.5Z"/><path fill="url(#f)" d="M27.5 32a.5.5 0 1 0 0 1h9a.5.5 0 0 0 0-1h-9Z"/><path fill="url(#g)" fill-rule="evenodd" d="M41.5 19a3.5 3.5 0 0 1 3.5 3.5V31a1 1 0 0 1-1 1h-3v10A3 3 0 0 1 38.09 45l.001.001H22.5a3.5 3.5 0 0 1-3.5-3.5V37a1 1 0 0 1 1-1h3V23a4 4 0 0 1 4-4h14.5ZM40 20H27a3 3 0 0 0-3 3v13h11.5a.5.5 0 0 1 .5.5V42a2 2 0 0 0 4 0V20Z" clip-rule="evenodd"/><path fill="#F5F5F5" fill-rule="evenodd" d="M46.79 59.24a1.499 1.499 0 1 1-2.12-2.12l2.83-2.83c.15-.15.33-.27.53-.34l-2.39-2.39c-.43-.43-.56-1.07-.32-1.64.23-.56.78-.92 1.38-.92h10.79c.83 0 1.5.67 1.5 1.5v10.79c0 .42-.17.81-.47 1.09-.28.26-.65.41-1.03.41-.4 0-.77-.16-1.06-.44l-2.23-2.23c-.07.19-.19.38-.34.53l-2.83 2.83a1.499 1.499 0 0 1-2.15-2.09l-2.09 2.09a1.499 1.499 0 0 1-2.12 0c-.58-.58-.58-1.54 0-2.12" clip-rule="evenodd"/><path fill="url(#h)" fill-rule="evenodd" d="M58 50.5c0-.28-.22-.5-.5-.5H46.71c-.45 0-.67.54-.35.85l10.79 10.79a.5.5 0 0 0 .85-.35V50.5Zm-9.08 5.21c.2-.2.2-.51 0-.71-.2-.2-.51-.2-.71 0l-2.83 2.83c-.2.2-.2.51 0 .71.2.2.51.2.71 0l2.83-2.83Zm2.12 1.41c.2.2.2.51 0 .71l-4.95 4.95c-.2.2-.51.2-.71 0-.2-.2-.2-.51 0-.71l4.95-4.95c.2-.2.51-.2.71 0Zm2.12 2.83c.2-.2.2-.51 0-.71-.2-.2-.51-.2-.71 0l-2.83 2.83c-.2.2-.2.51 0 .71.2.2.51.2.71 0l2.83-2.83Z" clip-rule="evenodd"/><defs><linearGradient id="a" x1="22.222" x2="31.153" y1="4" y2="60.135" gradientUnits="userSpaceOnUse"><stop stop-color="#fff"/><stop offset="1" stop-color="#EBEBEB"/></linearGradient><linearGradient id="c" x1="24.208" x2="33.702" y1="4" y2="59.944" gradientUnits="userSpaceOnUse"><stop stop-color="#BBB"/><stop offset="1" stop-color="#888"/></linearGradient><linearGradient id="d" x1="19" x2="45" y1="19" y2="45" gradientUnits="userSpaceOnUse"><stop stop-color="#4BA446"/><stop offset="1" stop-color="#3F7D35"/></linearGradient><linearGradient id="e" x1="19" x2="45" y1="19" y2="45" gradientUnits="userSpaceOnUse"><stop stop-color="#4BA446"/><stop offset="1" stop-color="#3F7D35"/></linearGradient><linearGradient id="f" x1="19" x2="45" y1="19" y2="45" gradientUnits="userSpaceOnUse"><stop stop-color="#4BA446"/><stop offset="1" stop-color="#3F7D35"/></linearGradient><linearGradient id="g" x1="19" x2="45" y1="19" y2="45" gradientUnits="userSpaceOnUse"><stop stop-color="#4BA446"/><stop offset="1" stop-color="#3F7D35"/></linearGradient><linearGradient id="h" x1="45.23" x2="58.16" y1="50" y2="62.769" gradientUnits="userSpaceOnUse"><stop stop-color="#4BA446"/><stop offset="1" stop-color="#3F7D35"/></linearGradient><radialGradient id="b" cx="0" cy="0" r="1" gradientTransform="matrix(23.22222 44.33329 -34.16705 17.89704 24.056 18.583)" gradientUnits="userSpaceOnUse"><stop offset=".177" stop-color="#fff"/><stop offset="1" stop-color="#B8B8B8"/></radialGradient></defs></svg>
